src/assets/img/scrum.svg

<svg width="66" height="60" viewBox="0 0 66 60" fill="none" xmlns="http://www.w3.org/2000/svg">
<path fill-rule="evenodd" clip-rule="evenodd" d="M63.6942 15.7639L58.0124 23.7083L52.3306 15.7639H55.4285C55.1923 9.86111 50.3163 5.13889 44.3567 5.13889C39.3278 5.13889 35.063 8.51389 33.7155 13.1111C32.0762 12.5833 30.3814 12.25 28.6588 12.0972C28.8533 11.3611 29.1034 10.625 29.409 9.91667C30.2286 7.98611 31.3955 6.25 32.8819 4.76389C34.3684 3.27778 36.1049 2.09722 38.0358 1.29167C40.0363 0.430556 42.1617 0 44.3567 0C46.5516 0 48.677 0.430556 50.6775 1.27778C52.6084 2.09722 54.3449 3.26389 55.8314 4.75C57.3178 6.23611 58.4847 7.97222 59.3043 9.90278C60.0962 11.7639 60.5268 13.7361 60.5685 15.7639H63.6942Z" fill="#930f50"/>
<path fill-rule="evenodd" clip-rule="evenodd" d="M55.748 59.9999V56.5832H36.1604C36.2993 56.5138 36.4382 56.4582 36.5772 56.3888C38.7026 55.3749 40.6614 54.0554 42.4118 52.4443C42.6479 52.2221 42.8702 52.0138 43.0786 51.8054C43.3147 51.5693 43.5648 51.3193 43.8009 51.0554C44.0788 50.7499 44.3566 50.4304 44.6067 50.111H55.748V46.6943L65.0555 53.3471L55.748 59.9999Z" fill="#930f50"/>
<path fill-rule="evenodd" clip-rule="evenodd" d="M48.5242 35.3192C48.5242 38.2776 47.9408 41.1526 46.8016 43.8609C45.8292 46.1665 44.4678 48.2776 42.773 50.1248C42.5507 50.3609 42.3284 50.597 42.1062 50.8331C41.8978 51.0415 41.6894 51.2359 41.481 51.4442C39.8418 52.9581 38.008 54.1942 36.0076 55.1526C35.7298 55.2915 35.438 55.4165 35.1463 55.5415C35.1324 55.5415 35.1324 55.5553 35.1185 55.5553C33.4515 56.2637 31.6594 56.6109 29.8396 56.6109H0.944458V50.1526H27.7697C35.8826 50.1526 42.5368 43.6665 42.6479 35.5553C42.6479 35.4859 42.6479 35.4165 42.6479 35.347C42.6479 26.4859 35.4519 19.2914 26.5889 19.2914C17.7259 19.2637 10.5299 26.4442 10.5299 35.3192H14.2529L7.59868 44.6248L0.944458 35.3192H4.66749C4.66749 32.3609 5.25095 29.4859 6.39008 26.7776C7.50143 24.1665 9.07122 21.8192 11.0855 19.8053C13.0999 17.7915 15.4476 16.2081 18.0593 15.1109C20.7682 13.972 23.6438 13.3887 26.6028 13.3887C27.2001 13.3887 27.7836 13.4164 28.3671 13.4581C30.0897 13.597 31.7706 13.9303 33.4098 14.472C33.9933 14.6664 34.5629 14.8748 35.1324 15.1248C37.7441 16.2359 40.0918 17.8053 42.1062 19.8192C44.1205 21.8331 45.7042 24.1803 46.8016 26.7914C47.9408 29.4859 48.5242 32.3609 48.5242 35.3192Z" fill="#930f50"/>
</svg>

<svg width="66" height="60" fill="none" xmlns="http://www.w3.org/2000/svg"><path fill-rule="evenodd" clip-rule="evenodd" d="m63.694 15.764-5.682 7.944-5.681-7.944h3.097C55.193 9.86 50.316 5.139 44.358 5.139c-5.03 0-9.294 3.375-10.642 7.972a23.157 23.157 0 0 0-5.056-1.014c.194-.736.444-1.472.75-2.18a16.212 16.212 0 0 1 3.473-5.153 15.992 15.992 0 0 1 5.154-3.472C40.036.43 42.162 0 44.356 0c2.196 0 4.321.43 6.322 1.278 1.93.82 3.667 1.986 5.153 3.472a16.212 16.212 0 0 1 3.473 5.153 15.738 15.738 0 0 1 1.264 5.86h3.126ZM55.748 60v-3.417H36.16c.14-.07.278-.125.417-.194a23.592 23.592 0 0 0 5.835-3.945c.236-.222.458-.43.667-.639.236-.236.486-.486.722-.75.278-.305.556-.625.806-.944h11.141v-3.417l9.307 6.653L55.748 60ZM48.524 35.32c0 2.958-.583 5.833-1.722 8.54a21.77 21.77 0 0 1-4.029 6.265l-.667.708c-.208.209-.417.403-.625.611a22.117 22.117 0 0 1-5.473 3.709c-.278.139-.57.264-.862.389-.014 0-.014.013-.028.013a13.468 13.468 0 0 1-5.278 1.056H.944v-6.458H27.77c8.113 0 14.767-6.486 14.878-14.598v-.208c0-8.861-7.196-16.056-16.06-16.056-8.862-.027-16.058 7.153-16.058 16.028h3.723l-6.654 9.306-6.655-9.306h3.723c0-2.958.584-5.833 1.723-8.541a21.96 21.96 0 0 1 4.696-6.973 21.74 21.74 0 0 1 6.973-4.694 21.936 21.936 0 0 1 8.544-1.722c.597 0 1.18.027 1.764.07a21.517 21.517 0 0 1 6.765 1.666 21.965 21.965 0 0 1 6.974 4.694 21.732 21.732 0 0 1 4.696 6.972 21.804 21.804 0 0 1 1.722 8.528Z" fill="#930f50"/></svg>
